Sources/FrostedUI/Resources/Icons.xcassets/lightsOn16.imageset/lights-on-16.svg

<svg width="16" height="16" viewBox="0 0 16 16" fill="none" xmlns="http://www.w3.org/2000/svg" data-fui-icon="true">
  <path
    d="M9.5 14.5C9.91421 14.5 10.25 14.8358 10.25 15.25C10.25 15.6642 9.91421 16 9.5 16H6.5C6.08579 16 5.75 15.6642 5.75 15.25C5.75 14.8358 6.08579 14.5 6.5 14.5H9.5ZM2.96973 11.9697C3.26262 11.6768 3.73738 11.6768 4.03027 11.9697C4.32317 12.2626 4.32317 12.7374 4.03027 13.0303L3.28027 13.7803C2.98738 14.0732 2.51262 14.0732 2.21973 13.7803C1.92683 13.4874 1.92683 13.0126 2.21973 12.7197L2.96973 11.9697ZM11.9697 11.9697C12.2626 11.6768 12.7374 11.6768 13.0303 11.9697L13.7803 12.7197C14.0732 13.0126 14.0732 13.4874 13.7803 13.7803C13.4874 14.0732 13.0126 14.0732 12.7197 13.7803L11.9697 13.0303C11.6768 12.7374 11.6768 12.2626 11.9697 11.9697ZM8 3.25C10.9743 3.25 12.75 5.64855 12.75 8C12.75 9.85573 11.3979 10.9799 10.7744 11.4053C10.7671 11.4103 10.7607 11.4157 10.7559 11.4209C10.7526 11.4243 10.7505 11.4275 10.749 11.4297C10.7401 12.5746 9.81011 13.5 8.66309 13.5H7.33691C6.18989 13.5 5.2589 12.5746 5.25 11.4297C5.24849 11.4275 5.24714 11.4241 5.24414 11.4209C5.23927 11.4157 5.2329 11.4103 5.22559 11.4053C4.60209 10.9799 3.25 9.85573 3.25 8C3.25 5.64855 5.02569 3.25 8 3.25ZM8 4.75C5.97431 4.75 4.75 6.35145 4.75 8C4.75 9.07539 5.54599 9.80818 6.07031 10.166C6.44878 10.4242 6.74999 10.8719 6.75 11.4131C6.75 11.7372 7.01279 12 7.33691 12H8.66309C8.98721 12 9.25 11.7372 9.25 11.4131C9.25001 10.8719 9.55122 10.4242 9.92969 10.166C10.454 9.80818 11.25 9.07539 11.25 8C11.25 6.35145 10.0257 4.75 8 4.75ZM1.75 7.25C2.16421 7.25 2.5 7.58579 2.5 8C2.49998 8.4142 2.1642 8.75 1.75 8.75H0.75C0.3358 8.75 2.21615e-05 8.4142 0 8C0 7.58579 0.335786 7.25 0.75 7.25H1.75ZM15.25 7.25C15.6642 7.25 16 7.5858 16 8C16 8.41418 15.6642 8.74998 15.25 8.75H14.25C13.8358 8.75 13.5 8.4142 13.5 8C13.5 7.5858 13.8358 7.25002 14.25 7.25H15.25ZM1.96973 1.96973C2.26262 1.67683 2.73738 1.67683 3.03027 1.96973L3.78027 2.71973C4.07317 3.01262 4.07317 3.48738 3.78027 3.78027C3.48738 4.07317 3.01262 4.07317 2.71973 3.78027L1.96973 3.03027C1.67683 2.73738 1.67683 2.26262 1.96973 1.96973ZM12.9697 1.96973C13.2626 1.67683 13.7374 1.67683 14.0303 1.96973C14.3232 2.26262 14.3232 2.73738 14.0303 3.03027L13.2803 3.78027C12.9874 4.07317 12.5126 4.07317 12.2197 3.78027C11.9268 3.48738 11.9268 3.01262 12.2197 2.71973L12.9697 1.96973ZM8 0C8.41421 0 8.75 0.335786 8.75 0.75V1.75C8.75 2.16421 8.41421 2.5 8 2.5C7.58579 2.5 7.25 2.16421 7.25 1.75V0.75C7.25 0.335786 7.58579 0 8 0Z"
    fill="currentColor"
  />
</svg>

<svg xmlns="http://www.w3.org/2000/svg" width="16" height="16" fill="none" data-fui-icon="true" viewBox="0 0 16 16"><path fill="currentColor" d="M9.5 14.5a.75.75 0 0 1 0 1.5h-3a.75.75 0 0 1 0-1.5zm-6.53-2.53a.75.75 0 1 1 1.06 1.06l-.75.75a.75.75 0 1 1-1.06-1.06zm9 0a.75.75 0 0 1 1.06 0l.75.75a.75.75 0 1 1-1.06 1.06l-.75-.75a.75.75 0 0 1 0-1.06M8 3.25c2.974 0 4.75 2.399 4.75 4.75 0 1.856-1.352 2.98-1.976 3.405l-.018.016-.007.009a2.086 2.086 0 0 1-2.086 2.07H7.337a2.087 2.087 0 0 1-2.087-2.07l-.006-.01-.018-.015C4.602 10.98 3.25 9.855 3.25 8c0-2.351 1.776-4.75 4.75-4.75m0 1.5C5.974 4.75 4.75 6.351 4.75 8c0 1.075.796 1.808 1.32 2.166.379.258.68.706.68 1.247 0 .324.263.587.587.587h1.326a.587.587 0 0 0 .587-.587c0-.541.301-.989.68-1.247.524-.358 1.32-1.09 1.32-2.166 0-1.649-1.224-3.25-3.25-3.25m-6.25 2.5a.75.75 0 0 1 0 1.5h-1a.75.75 0 0 1 0-1.5zm13.5 0a.75.75 0 0 1 0 1.5h-1a.75.75 0 0 1 0-1.5zM1.97 1.97a.75.75 0 0 1 1.06 0l.75.75a.75.75 0 1 1-1.06 1.06l-.75-.75a.75.75 0 0 1 0-1.06m11 0a.75.75 0 1 1 1.06 1.06l-.75.75a.75.75 0 1 1-1.06-1.06zM8 0a.75.75 0 0 1 .75.75v1a.75.75 0 0 1-1.5 0v-1A.75.75 0 0 1 8 0"/></svg>
